other/beanconqueror.svg

<svg xmlns="http://www.w3.org/2000/svg" viewBox="0 0 48 48"><defs><style>.a{fill:none;stroke:#fff;stroke-linecap:round;stroke-linejoin:round;}</style></defs><path class="a" d="M9.764,9.596C16.198,5.091,26.023,8.005,31.691,16.1s5.046,18.324-1.388,22.829S14.043,40.52,8.375,32.426,3.329,14.101,9.764,9.596Z"/><path class="a" d="M11.252,8.713s3.215,9.612,4.459,11.575,6.874,6.302,8.083,8.209,4.459,11.575,4.459,11.575"/><path class="a" d="M23.596,9.119c4.494-2.567,9.591-2.97,13.682-.583,6.784,3.959,8.247,14.103,3.266,22.638-3.826,6.556-10.35,10.268-16.243,9.841a11.8094,11.8094,0,0,0,6.002-2.086c6.434-4.505,7.056-14.734,1.388-22.829A21.0994,21.0994,0,0,0,23.596,9.119Z"/><path class="a" d="M38.693,9.529l-6.749,6.94Z"/></svg>

<?xml version="1.0" encoding="UTF-8" standalone="no"?>
<!DOCTYPE svg PUBLIC "-//W3C//DTD SVG 1.1//EN" "http://www.w3.org/Graphics/SVG/1.1/DTD/svg11.dtd">
<svg width="48px" height="48px" version="1.1" xmlns="http://www.w3.org/2000/svg" xmlns:xlink="http://www.w3.org/1999/xlink" xml:space="preserve" xmlns:serif="http://www.serif.com/" style="clip-rule:evenodd;stroke-linecap:round;stroke-linejoin:round;stroke-miterlimit:1.5;">
    <rect id="beanconqueror" x="0" y="0" width="48" height="48" style="fill:none;"/>
    <path d="M9.764,9.596C16.198,5.091 26.023,8.005 31.691,16.1C37.359,24.195 36.737,34.424 30.303,38.929C23.869,43.435 14.043,40.52 8.375,32.426C2.708,24.331 3.329,14.101 9.764,9.596Z" style="fill:none;stroke:white;stroke-width:1px;"/>
    <path d="M11.252,8.713C11.252,8.713 14.467,18.325 15.711,20.288C16.956,22.251 22.585,26.59 23.794,28.497C25.003,30.405 28.253,40.072 28.253,40.072" style="fill:none;stroke:white;stroke-width:1px;"/>
    <path d="M23.596,9.119C28.09,6.552 33.187,6.149 37.278,8.536C44.062,12.495 45.525,22.639 40.544,31.174C36.718,37.73 30.194,41.442 24.301,41.015C26.456,40.863 28.511,40.184 30.303,38.929C36.737,34.424 37.359,24.195 31.691,16.1C29.477,12.938 26.629,10.567 23.596,9.119Z" style="fill:none;stroke:white;stroke-width:1px;"/>
    <path d="M38.693,9.529L31.944,16.469L38.693,9.529Z" style="fill:none;stroke:white;stroke-width:1px;"/>
</svg>
